packages/core/src/svgs/tokens/mono/KICK.svg

<svg width="24" height="24" viewBox="0 0 24 24" fill="none" xmlns="http://www.w3.org/2000/svg">
<path d="M11.9992 3.25901C7.30223 3.25901 3.25479 7.30645 3.25479 12.0035C3.25479 16.7006 7.30223 20.748 11.9992 20.748C16.6963 20.748 20.7437 16.7006 20.7437 12.0035C20.7437 7.30645 16.6963 3.25901 11.9992 3.25901ZM11.9992 21.9971C10.6865 22 9.38638 21.7425 8.17384 21.2397C6.96128 20.7369 5.86046 19.9987 4.93498 19.0677C3.52475 17.6644 2.56704 15.8709 2.18519 13.9182C1.80337 11.9656 2.01491 9.94343 2.79259 8.11219C3.80174 5.71389 5.70969 3.80596 8.10798 2.79679C9.33843 2.27279 10.6619 2.00269 11.9992 2.00269C13.3366 2.00269 14.6602 2.27279 15.8905 2.79679C18.2885 3.80651 20.1963 5.71427 21.206 8.11219C21.7299 9.34254 22 10.6662 22 12.0035C22 13.3408 21.7299 14.6644 21.206 15.8948C20.1963 18.2927 18.2885 20.2004 15.8905 21.2101C14.6596 21.7317 13.3361 21.9994 11.9992 21.9971Z" fill="white"/>
<path d="M13.4229 11.7413C13.2701 11.7431 13.121 11.694 12.9993 11.6017C12.8776 11.5093 12.7902 11.3792 12.7509 11.2315C12.7114 11.0839 12.7223 10.9275 12.7818 10.7867C12.8414 10.6461 12.946 10.5292 13.0794 10.4546L19.0131 7.05677C19.1721 6.96565 19.3608 6.94146 19.5376 6.98948C19.7145 7.0375 19.8651 7.15383 19.9562 7.31285C20.0473 7.47188 20.0716 7.66059 20.0235 7.83748C19.9754 8.01435 19.8591 8.1649 19.7001 8.25602L13.7664 11.6476C13.6539 11.7101 13.5352 11.7413 13.4229 11.7413Z" fill="white"/>
<path d="M13.2415 11.7415C12.898 11.7415 12.6169 11.4291 12.6231 11.0544L12.6357 7.06939C12.6357 6.68838 12.9104 6.38232 13.2541 6.38232C13.5976 6.38232 13.8786 6.69463 13.8723 7.06939L13.8599 11.0544C13.8599 11.4291 13.585 11.7415 13.2415 11.7415Z" fill="white"/>
<path d="M16.7585 13.6277C16.6461 13.6277 16.5338 13.5965 16.4338 13.5465L12.986 11.86C12.6486 11.6913 12.5237 11.3104 12.7048 11.0043C12.8923 10.6983 13.3044 10.5858 13.6418 10.7545L17.0896 12.4409C17.4206 12.6095 17.5455 12.9905 17.3645 13.2965C17.2394 13.5028 17.0022 13.6214 16.7585 13.6214V13.6277ZM12.0115 21.7663C11.668 21.7663 11.3932 21.454 11.3932 21.0667L11.3745 13.3279C11.3745 12.9468 11.6492 12.6283 11.9866 12.6283C12.3301 12.6283 12.6049 12.9406 12.6049 13.3279L12.6237 21.0605C12.6237 21.4414 12.3488 21.76 12.0115 21.76V21.7663Z" fill="white"/>
<path d="M8.54531 16.0635C8.30795 16.0635 8.07685 15.9386 7.94568 15.7137C7.75831 15.3765 7.87073 14.9518 8.19553 14.7581L11.6433 12.7219C11.8008 12.6311 11.9878 12.6065 12.1634 12.6533C12.3391 12.7001 12.4889 12.8146 12.5803 12.9717C12.7739 13.309 12.6614 13.7399 12.3305 13.9336L8.89509 15.9635C8.78266 16.026 8.66398 16.0572 8.54531 16.0572V16.0635Z" fill="white"/>
<path d="M15.3094 16.1762C15.1843 16.1762 15.0532 16.1386 14.9345 16.0637L11.6179 13.915C11.4641 13.814 11.3559 13.6569 11.3162 13.4772C11.2764 13.2977 11.3085 13.1095 11.4056 12.9531C11.6116 12.6284 12.0363 12.5285 12.3612 12.7408L15.6715 14.8895C15.9964 15.0955 16.0901 15.5265 15.8902 15.8514C15.8288 15.9503 15.7433 16.0319 15.6417 16.0888C15.5401 16.1456 15.4257 16.1756 15.3094 16.1762ZM11.2056 11.3979C11.393 11.0668 11.2807 10.6484 10.9558 10.461L4.62857 6.84454C4.55023 6.79942 4.46378 6.77018 4.37415 6.75848C4.2845 6.74678 4.19344 6.75284 4.10616 6.77633C4.01886 6.79981 3.93705 6.84027 3.86539 6.89537C3.79374 6.95048 3.73364 7.01917 3.68852 7.0975C3.64341 7.17584 3.61418 7.26228 3.60247 7.35192C3.59077 7.44156 3.59683 7.53261 3.62033 7.6199C3.64381 7.7072 3.68426 7.789 3.73937 7.86066C3.79447 7.93231 3.86316 7.99241 3.9415 8.03754L10.2688 11.6415C10.4262 11.7323 10.6132 11.7569 10.7888 11.7101C10.9644 11.6632 11.1142 11.5488 11.2056 11.3917V11.3979Z" fill="white"/>
<path d="M10.7565 11.7415C11.1 11.7415 11.381 11.4291 11.3749 11.0544L11.3624 7.06939C11.3624 6.68838 11.0875 6.38232 10.744 6.38232C10.4005 6.38232 10.1193 6.69463 10.1256 7.06939L10.1381 11.0544C10.1381 11.4291 10.413 11.7415 10.7565 11.7415Z" fill="white"/>
<path d="M7.23985 13.6026C7.35229 13.6026 7.46471 13.5776 7.56464 13.5276L11.0125 11.7662C11.3497 11.5976 11.4746 11.2041 11.2935 10.8918C11.1062 10.5733 10.6939 10.4545 10.3567 10.6233L6.90881 12.3783C6.57777 12.5532 6.45284 12.9406 6.63398 13.259C6.7589 13.4777 6.99625 13.6026 7.23985 13.6026Z" fill="white"/>
</svg>

<svg xmlns="http://www.w3.org/2000/svg" width="24" height="24" fill="none" viewBox="0 0 24 24">
    <path fill="#fff" d="M12 3.259c-4.698 0-8.745 4.047-8.745 8.745s4.047 8.744 8.744 8.744 8.745-4.047 8.745-8.744c0-4.698-4.048-8.745-8.745-8.745m0 18.738a9.93 9.93 0 0 1-7.065-2.93A9.96 9.96 0 0 1 2.793 8.113a9.96 9.96 0 0 1 5.315-5.315 9.93 9.93 0 0 1 7.782 0 9.96 9.96 0 0 1 5.316 5.315 9.93 9.93 0 0 1 0 7.783 9.96 9.96 0 0 1-5.315 5.315 9.9 9.9 0 0 1-3.892.787"/>
    <path fill="#fff" d="M13.423 11.741a.688.688 0 0 1-.344-1.286l5.934-3.398a.69.69 0 1 1 .687 1.199l-5.934 3.392a.7.7 0 0 1-.343.093"/>
    <path fill="#fff" d="M13.242 11.742c-.344 0-.625-.313-.619-.688l.013-3.985c0-.38.274-.687.618-.687s.625.313.618.687l-.012 3.985c0 .375-.275.688-.618.688"/>
    <path fill="#fff" d="M16.759 13.628a.7.7 0 0 1-.325-.082l-3.448-1.686c-.337-.169-.462-.55-.281-.856a.723.723 0 0 1 .937-.25l3.448 1.687c.33.168.456.55.274.855a.71.71 0 0 1-.605.325zm-4.748 8.138c-.343 0-.618-.312-.618-.7l-.019-7.738c0-.381.275-.7.613-.7.343 0 .618.313.618.7l.019 7.733c0 .38-.275.699-.613.699z"/>
    <path fill="#fff" d="M8.545 16.064a.7.7 0 0 1-.6-.35.71.71 0 0 1 .25-.956l3.448-2.036a.687.687 0 0 1 .937.25.707.707 0 0 1-.25.962l-3.435 2.03a.7.7 0 0 1-.35.093z"/>
    <path fill="#fff" d="M15.31 16.176a.7.7 0 0 1-.376-.112l-3.316-2.149a.706.706 0 0 1-.212-.962.684.684 0 0 1 .955-.212l3.31 2.149a.704.704 0 0 1 .22.961.69.69 0 0 1-.582.325m-4.104-4.778a.69.69 0 0 0-.25-.937L4.629 6.845a.688.688 0 1 0-.687 1.193l6.327 3.604a.687.687 0 0 0 .937-.25z"/>
    <path fill="#fff" d="M10.757 11.742c.343 0 .624-.313.618-.688l-.013-3.985c0-.38-.274-.687-.618-.687s-.625.313-.618.687l.012 3.985c0 .375.275.688.619.688"/>
    <path fill="#fff" d="M7.24 13.603a.7.7 0 0 0 .325-.075l3.447-1.762c.338-.168.463-.562.281-.874a.717.717 0 0 0-.936-.269l-3.448 1.755c-.331.175-.456.563-.275.881a.7.7 0 0 0 .606.344"/>
</svg>
